mobile/24/svg/image-slash-24.svg

<svg width="24" height="24" viewBox="0 0 24 24" fill="none" xmlns="http://www.w3.org/2000/svg">
<path fill-rule="evenodd" clip-rule="evenodd" d="M3.23768 2.00024L4.7172 3.47976L4.719 3.47894L6.24 4.99994H6.23738L14.3476 13.1102L14.349 13.1089L17.249 16.0099V16.0116L19 17.7626V17.7599L20.521 19.2809L20.5202 19.2827L21.9997 20.7622L20.7622 21.9997L19.2861 20.5235C18.9707 20.6688 18.6199 20.7499 18.25 20.7499H5.75C4.372 20.7499 3.25 19.6289 3.25 18.2499V5.74994C3.25 5.38001 3.33116 5.02927 3.47648 4.71392L2.00024 3.23768L3.23768 2.00024ZM9.64077 10.8782L7.04002 13.4939C6.85402 13.6809 6.74902 13.9349 6.74902 14.1989V16.4999C6.74902 16.9139 7.08502 17.2499 7.49902 17.2499H16.0125L17.7625 18.9999H5.75C5.336 18.9999 5 18.6629 5 18.2499V6.23744L9.64077 10.8782Z" fill="black"/>
<path d="M17.25 7.99994H14.75V10.4999H17.25V7.99994Z" fill="black"/>
<path d="M18.25 4.99994H8.36096L6.61096 3.24994H18.25C19.629 3.24994 20.75 4.37094 20.75 5.74994V17.3889L19 15.6389V5.74994C19 5.33694 18.663 4.99994 18.25 4.99994Z" fill="black"/>
</svg>

<svg width="24" height="24" fill="none" xmlns="http://www.w3.org/2000/svg"><path fill-rule="evenodd" clip-rule="evenodd" d="m3.238 2 1.48 1.48.001-.001 1.521 1.52h-.003l8.11 8.111.002-.001 2.9 2.9v.003L19 17.762v-.002l1.521 1.52v.003L22 20.763 20.762 22l-1.476-1.477a2.47 2.47 0 0 1-1.036.227H5.75a2.503 2.503 0 0 1-2.5-2.5V5.75c0-.37.081-.72.226-1.036L2 3.238 3.238 2zm6.403 8.878L7.04 13.494a1.001 1.001 0 0 0-.291.705v2.3c0 .415.336.75.75.75h8.514l1.75 1.75H5.75a.75.75 0 0 1-.75-.75V6.238l4.64 4.641z" fill="#000"/><path d="M17.25 8h-2.5v2.5h2.5V8z" fill="#000"/><path d="M18.25 5H8.361l-1.75-1.75H18.25c1.379 0 2.5 1.12 2.5 2.5v11.639L19 15.639v-9.89a.752.752 0 0 0-.75-.75z" fill="#000"/></svg>
